dist/intermediate-svg/copy.svg

<?xml version="1.0" encoding="utf-8"?><svg width="14" height="16" fill="none" xmlns="http://www.w3.org/2000/svg" viewBox="0 0 14 16"><path d="M14 3.46v7.28a1.89 1.89 0 01-1.68 1.904V3.46c0-.168-.112-.28-.28-.28H2.856c.112-.952.952-1.68 1.904-1.68h7.28c1.064 0 1.96.896 1.96 1.96zm-2.8 2.8v7.28c0 1.064-.896 1.96-1.96 1.96H1.96A1.984 1.984 0 010 13.54V6.26C0 5.196.896 4.3 1.96 4.3h7.28c1.064 0 1.96.896 1.96 1.96zm-1.68 0c0-.168-.112-.28-.28-.28H1.96c-.168 0-.28.112-.28.28v7.28c0 .168.112.28.28.28h7.28c.168 0 .28-.112.28-.28V6.26z" fill="#fff"/><path d="M14 2.46v7.28a1.89 1.89 0 01-1.68 1.904V2.46c0-.168-.112-.28-.28-.28H2.856C2.968 1.228 3.808.5 4.76.5h7.28C13.104.5 14 1.396 14 2.46zm-2.8 2.8v7.28c0 1.064-.896 1.96-1.96 1.96H1.96A1.984 1.984 0 010 12.54V5.26C0 4.196.896 3.3 1.96 3.3h7.28c1.064 0 1.96.896 1.96 1.96zm-1.68 0c0-.168-.112-.28-.28-.28H1.96c-.168 0-.28.112-.28.28v7.28c0 .168.112.28.28.28h7.28c.168 0 .28-.112.28-.28V5.26z" fill="#1E6393"/></svg>

<?xml version="1.0" encoding="utf-8"?><svg width="14" height="16" fill="none" xmlns="http://www.w3.org/2000/svg" viewBox="0 0 14 16"><path d="M14 3.46V10.74C14 11.748 13.272 12.532 12.32 12.644V3.46C12.32 3.292 12.208 3.18 12.04 3.18H2.856C2.968 2.228 3.808 1.5 4.76 1.5H12.04C13.104 1.5 14 2.396 14 3.46ZM11.2 6.26V13.54C11.2 14.604 10.304 15.5 9.24 15.5H1.96C0.896 15.5 0 14.604 0 13.54V6.26C0 5.196 0.896 4.3 1.96 4.3H9.24C10.304 4.3 11.2 5.196 11.2 6.26ZM9.52 6.26C9.52 6.092 9.408 5.98 9.24 5.98H1.96C1.792 5.98 1.68 6.092 1.68 6.26V13.54C1.68 13.708 1.792 13.82 1.96 13.82H9.24C9.408 13.82 9.52 13.708 9.52 13.54V6.26Z" fill="#fff"/><path d="M14 2.46V9.74C14 10.748 13.272 11.532 12.32 11.644V2.46C12.32 2.292 12.208 2.18 12.04 2.18H2.856C2.968 1.228 3.808 0.5 4.76 0.5H12.04C13.104 0.5 14 1.396 14 2.46ZM11.2 5.26V12.54C11.2 13.604 10.304 14.5 9.24 14.5H1.96C0.896 14.5 0 13.604 0 12.54V5.26C0 4.196 0.896 3.3 1.96 3.3H9.24C10.304 3.3 11.2 4.196 11.2 5.26ZM9.52 5.26C9.52 5.092 9.408 4.98 9.24 4.98H1.96C1.792 4.98 1.68 5.092 1.68 5.26V12.54C1.68 12.708 1.792 12.82 1.96 12.82H9.24C9.408 12.82 9.52 12.708 9.52 12.54V5.26Z" fill="#1E6393"/></svg>
